X:1
T:Calvary
T:John Robson Sweney
T:Calvary
T:Public Domain
T:Public Domain
T:Public Domain
C:John Robson Sweney
Z:Public Domain
%%score ( 1 2 ) ( 3 4 )
L:1/8
M:4/4
K:Bb
V:1 treble 
V:2 treble 
V:3 bass 
V:4 bass 
V:1
 z3/2 d/ c>B | (z3/2 D/ D>D F>)D F>B | (z3/2 E/ E>E A>)e d>c | (z3/2 E/ E>E G>)A G>F | %4
w: 1.~On Cal- vr’y’s|* * * * brow my Sav-|* * * * died, ’Twas there|* * * * * Lord *|
w: 2.~’Mid rend- ing|* * * * rocks and dark-|* * * * skies, My Sav-|* * * * * bows *|
w: 3.~O Je- sus,|* * * * Lord, how can|* * * * be, That Thou|* * * * * give *|
 (z3/2 B,/ B,>B, D>)d c>B | (z3/2 D/ D>D [DF]>)D F>B | z3/2 E/ E>E [EG]>[Ge] [Fd]>[=E^c] | %7
w: * * * * cru- ci- fied;|* * * * on the cross|* * * * bled * for|
w: * * * * head and dies;|* * * * op- ening veil|* * * * veals * the|
w: * * * * life for me,|* * * * bear the cross|* * * * a- * go-|
 [Fd]4- [Fd]>[FB] [FA]>[Ec] | [DB]6 ||"^Refrain" F2 | [Ec]>[D=B] [Ec]4 [Fd]2 | %11
w: * * And pur- chased|there|my|don free. * *|
w: * * To Heav- en’s|joys|and|less day. O Cal-|
w: * * In that dread|hour|on|va- ry! * *|
 [DB]>[EG] [DF]4 [DF]2 | [EG][EG][Ge][Fd] [Gc]2 [GB]2 | ([F-A]=E _E2) F2 x4 | %14
w: |||
w: va- ry! dark Cal-|va- ry! Where Je- sus shed|His * * *|
w: |||
 [Fd]>[Ec] [DB]4 [FA]2 | [EG]>[GB] [Ge]4 [EG]2 | [DF]3 [FB] [FA][FB] [Fd]>[Ec] | [DB]4 |] %18
w: ||||
w: O Cal- va- ry!|blest Cal- va- ry!|’Twas there my Sav- ior died|for|
w: ||||
V:2
 x4 | (F4- D2) x2 | (A4- E2) x2 | (G4- E2) x2 | (D4- B,2) x2 | F4- x4 | G4- x4 | x8 | x6 || F2 | %10
w: |ior *|my *|was *|’Twas *|He|me,|||par-|
w: |’ning *|ior *|His *|The *|re-|way|||end-|
w: |it *|shouldst *|Thy *|To *|and|ny|||Cal-|
 x8 | x8 | x8 | c6 F2 F2 | x8 | x8 | x8 | x4 |] %18
w: ||||||||
w: |||blood for me;|||||
w: ||||||||
V:3
 z2 B,,2- | B,,>[B,,B,] [B,,B,]>[B,,B,] [B,,B,]2 B,,2 | C,>[C,F,] [C,F,]>[C,F,] z3/2 C,/ D,>E, | %3
w: ~|* On Cal- v’ry’s brow ~|~ my Sav- ior died ~ ~|
 D,>[D,F,] [F,A,]>[F,A,] [F,A,]2 z2 | B,,>[B,,F,] [B,,F,]>[B,,F,] [B,,F,]2 B,,2- | %5
w: ’Twas there my Lord ~|was cru- ci- fied ~ ~|
 B,,>[B,,B,] [B,,B,]>[B,,B,] [B,,B,]3/2 z/ B,,2 | E,>[E,B,] [E,B,]>[E,B,] [E,B,]>E, F,2- | %7
w: * ’Twas on the cross ~|He bled for me, ~ ~ ~|
 F,>[F,B,] [F,B,]>[F,B,] [F,B,]>[F,D] [F,C]>[F,A,] | [B,,B,]6 || F,2 | [F,A,]>[F,^G,] [F,A,]4 F,2 | %11
w: * And pur- chased there * * *||||
 [B,,F,]>[B,,B,] [B,,B,]4 [B,,B,]2 | [E,B,][E,B,][C,C][D,B,] [E,E]2 [=E,C]2 | %13
w: ||
 (C[G,B,] [A,C]2) F,2 x4 | [B,,B,]>[B,,F,] [B,,F,]4 [D,B,]2 | [E,B,]>[E,B,] [E,B,]4 [E,B,]2 | %16
w: |||
 [F,B,]3 [F,D] [F,E][F,D] [F,B,]>[F,A,] | [B,,F,B,]4 |] %18
w: ||
V:4
 x4 | x8 | x4 [C,F,]2 x2 | x8 | x8 | x8 | x8 | x8 | x6 || F,2 | x6 F,2 | x8 | x8 | [F,A,]3 F,2 x5 | %14
w: ||~||||||||||||
 x8 | x8 | x8 | x4 |] %18
w: ||||

